art/dp/systems/arcade.svg

<svg enable-background="new 0 0 3840 630.9" height="630" viewBox="0 0 3840 629.99998" width="3840" xmlns="http://www.w3.org/2000/svg"><g transform="scale(1 .99857347)"><path d="m3840 290.4v-290.4h-341.7-269.2v290.4 219 121.5h269.2 341.7v-121.5h-341.7v-70h120v-78.9h-120v-70.1z"/><path d="m3258.4 601.7v-572.5h552.4v232h-341.8v128.5h120.1v20.5h-120.1v128.4h341.8v63.1z" fill="#f2b11c"/><path d="m3302.2 269.5v-196.5h259" style="fill:none;stroke:#000;stroke-width:20.2827;stroke-linecap:round;stroke-linejoin:round;stroke-miterlimit:10"/><path d="m1610.2 315.4 285.1-135.2c-50.7-106.5-159.3-180.2-285.1-180.2-174.2 0-315.4 141.2-315.4 315.4s141.2 315.4 315.4 315.4c125.8 0 234.4-73.7 285.1-180.3z"/><path d="m1610.2 601.7c-157.8 0-286.2-128.4-286.2-286.2s128.4-286.2 286.2-286.2c55.2 0 108.8 15.7 154.9 45.5 36.7 23.7 67.4 55.3 89.9 92.3l-313 148.4 313 148.4c-22.5 37.1-53.2 68.6-89.9 92.3-46.2 29.7-99.7 45.5-154.9 45.5z" fill="#f2b11c"/><path d="m1599.6 391.2 188.1 89.2c-13.8 14.8-29.4 27.9-46.4 38.9" style="fill:none;stroke:#000;stroke-width:20.2827;stroke-linecap:round;stroke-linejoin:round;stroke-miterlimit:10"/><path d="m0 630.9h686.7l-343.4-630.9z"/><path d="m49.1 601.7 294.2-540.6 294.2 540.6z" fill="#f2b11c"/><path d="m495.3 431.9 68.5 126h-129.5" style="fill:none;stroke:#000;stroke-width:20.2827;stroke-linecap:round;stroke-linejoin:round;stroke-miterlimit:10"/><circle cx="343.29999" cy="399.29999" r="30.6"/><path d="m1827.3 630.9h686.7l-343.4-630.9z"/><path d="m1876.4 601.7 294.2-540.6 294.2 540.6z" fill="#f2b11c"/><path d="m2322.6 431.9 68.5 126h-129.5" style="fill:none;stroke:#000;stroke-width:20.2827;stroke-linecap:round;stroke-linejoin:round;stroke-miterlimit:10"/><circle cx="2170.6001" cy="399.29999" r="30.6"/><path d="m2882.3 630.9h-352.9v-630.9h352.9c174.2 0 315.4 141.2 315.4 315.4.1 174.2-141.2 315.5-315.4 315.5z"/><path d="m2558.6 601.7v-572.5h323.7c157.8 0 286.2 128.4 286.2 286.2s-128.4 286.2-286.2 286.2h-323.7z" fill="#f2b11c"/><path d="m3124.6 323.7c-4.2 122.9-100.2 222.8-221.4 233.2" style="fill:none;stroke:#000;stroke-width:20.2827;stroke-linecap:round;stroke-linejoin:round;stroke-miterlimit:10"/><circle cx="2879.7" cy="396.20001" r="30.6"/><path d="m1285.8 200.6c0-110.8-89.8-200.6-200.5-200.6h-383.2v355 46.2 229.7h583.7l-208.1-229.7h7.6c110.7 0 200.5-89.8 200.5-200.6z"/><path d="m731.3 601.7v-572.5h353.9c94.5 0 171.4 76.9 171.4 171.4s-76.9 171.4-171.3 171.4h-7.6c-11.6 0-22 6.8-26.7 17.4s-2.7 22.9 5.1 31.4l163.9 180.9z" fill="#f2b11c"/><path d="m1211.6 218.4c-8.7 61.9-62 109.8-126.3 109.8" style="fill:none;stroke:#000;stroke-width:20.2827;stroke-linecap:round;stroke-linejoin:round;stroke-miterlimit:10"/><circle cx="1005.5" cy="203.8" r="30.6"/><path d="m1011.5 431.9c3 6.6 7.1 12.8 12.1 18.3l97.6 107.7h-129.4" style="fill:none;stroke:#000;stroke-width:20.2827;stroke-linecap:round;stroke-linejoin:round;stroke-miterlimit:10"/></g></svg>

<?xml version="1.0" encoding="UTF-8" standalone="no"?>
<svg
   enable-background="new 0 0 3840 630.9"
   viewBox="0 0 3840 629.99998"
   version="1.1"
   id="svg19"
   sodipodi:docname="arcade.svg"
   width="3840"
   height="630"
   inkscape:version="1.3.2 (091e20e, 2023-11-25)"
   xmlns:inkscape="http://www.inkscape.org/namespaces/inkscape"
   xmlns:sodipodi="http://sodipodi.sourceforge.net/DTD/sodipodi-0.dtd"
   xmlns="http://www.w3.org/2000/svg"
   xmlns:svg="http://www.w3.org/2000/svg">
  <defs
     id="defs19" />
  <sodipodi:namedview
     id="namedview19"
     pagecolor="#ffffff"
     bordercolor="#000000"
     borderopacity="0.25"
     inkscape:showpageshadow="2"
     inkscape:pageopacity="0.0"
     inkscape:pagecheckerboard="0"
     inkscape:deskcolor="#d1d1d1"
     inkscape:zoom="0.24557292"
     inkscape:cx="1922.0361"
     inkscape:cy="313.55249"
     inkscape:window-width="1312"
     inkscape:window-height="449"
     inkscape:window-x="0"
     inkscape:window-y="23"
     inkscape:window-maximized="0"
     inkscape:current-layer="svg19" />
  <g
     id="g19"
     transform="scale(1,0.99857347)">
    <path
       d="M 3840,290.4 V 0 h -341.7 -269.2 v 290.4 219 121.5 H 3498.3 3840 V 509.4 h -341.7 v -70 h 120 v -78.9 h -120 v -70.1 z"
       id="path1" />
    <path
       d="M 3258.4,601.7 V 29.2 h 552.4 v 232 H 3469 v 128.5 h 120.1 v 20.5 H 3469 v 128.4 h 341.8 v 63.1 z"
       fill="#f2b11c"
       id="path2" />
    <path
       d="M 3302.2,269.5 V 73 h 259"
       style="fill:none;stroke:#000000;stroke-width:20.2827;stroke-linecap:round;stroke-linejoin:round;stroke-miterlimit:10"
       id="path3" />
    <path
       d="M 1610.2,315.4 1895.3,180.2 C 1844.6,73.7 1736,0 1610.2,0 1436,0 1294.8,141.2 1294.8,315.4 c 0,174.2 141.2,315.4 315.4,315.4 125.8,0 234.4,-73.7 285.1,-180.3 z"
       id="path4" />
    <path
       d="m 1610.2,601.7 c -157.8,0 -286.2,-128.4 -286.2,-286.2 0,-157.8 128.4,-286.2 286.2,-286.2 55.2,0 108.8,15.7 154.9,45.5 36.7,23.7 67.4,55.3 89.9,92.3 l -313,148.4 313,148.4 c -22.5,37.1 -53.2,68.6 -89.9,92.3 -46.2,29.7 -99.7,45.5 -154.9,45.5 z"
       fill="#f2b11c"
       id="path5" />
    <path
       d="m 1599.6,391.2 188.1,89.2 c -13.8,14.8 -29.4,27.9 -46.4,38.9"
       style="fill:none;stroke:#000000;stroke-width:20.2827;stroke-linecap:round;stroke-linejoin:round;stroke-miterlimit:10"
       id="path6" />
    <path
       d="M 0,630.9 H 686.7 L 343.3,0 Z"
       id="path7" />
    <path
       d="M 49.1,601.7 343.3,61.1 637.5,601.7 Z"
       fill="#f2b11c"
       id="path8" />
    <path
       d="m 495.3,431.9 68.5,126 H 434.3"
       style="fill:none;stroke:#000000;stroke-width:20.2827;stroke-linecap:round;stroke-linejoin:round;stroke-miterlimit:10"
       id="path9" />
    <circle
       cx="343.29999"
       cy="399.29999"
       r="30.6"
       id="circle9" />
    <path
       d="M 1827.3,630.9 H 2514 L 2170.6,0 Z"
       id="path10" />
    <path
       d="M 1876.4,601.7 2170.6,61.1 2464.8,601.7 Z"
       fill="#f2b11c"
       id="path11" />
    <path
       d="m 2322.6,431.9 68.5,126 h -129.5"
       style="fill:none;stroke:#000000;stroke-width:20.2827;stroke-linecap:round;stroke-linejoin:round;stroke-miterlimit:10"
       id="path12" />
    <circle
       cx="2170.6001"
       cy="399.29999"
       r="30.6"
       id="circle12" />
    <path
       d="M 2882.3,630.9 H 2529.4 V 0 h 352.9 c 174.2,0 315.4,141.2 315.4,315.4 0.1,174.2 -141.2,315.5 -315.4,315.5 z"
       id="path13" />
    <path
       d="M 2558.6,601.7 V 29.2 h 323.7 c 157.8,0 286.2,128.4 286.2,286.2 0,157.8 -128.4,286.2 -286.2,286.2 h -323.7 z"
       fill="#f2b11c"
       id="path14" />
    <path
       d="m 3124.6,323.7 c -4.2,122.9 -100.2,222.8 -221.4,233.2"
       style="fill:none;stroke:#000000;stroke-width:20.2827;stroke-linecap:round;stroke-linejoin:round;stroke-miterlimit:10"
       id="path15" />
    <circle
       cx="2879.7"
       cy="396.20001"
       r="30.6"
       id="circle15" />
    <path
       d="M 1285.8,200.6 C 1285.8,89.8 1196,0 1085.3,0 H 702.1 v 355 46.2 229.7 h 583.7 L 1077.7,401.2 h 7.6 c 110.7,0 200.5,-89.8 200.5,-200.6 z"
       id="path16" />
    <path
       d="M 731.3,601.7 V 29.2 h 353.9 c 94.5,0 171.4,76.9 171.4,171.4 0,94.5 -76.9,171.4 -171.3,171.4 h -7.6 c -11.6,0 -22,6.8 -26.7,17.4 -4.7,10.6 -2.7,22.9 5.1,31.4 L 1220,601.7 Z"
       fill="#f2b11c"
       id="path17" />
    <path
       d="m 1211.6,218.4 c -8.7,61.9 -62,109.8 -126.3,109.8"
       style="fill:none;stroke:#000000;stroke-width:20.2827;stroke-linecap:round;stroke-linejoin:round;stroke-miterlimit:10"
       id="path18" />
    <circle
       cx="1005.5"
       cy="203.8"
       r="30.6"
       id="circle18" />
    <path
       d="m 1011.5,431.9 c 3,6.6 7.1,12.8 12.1,18.3 l 97.6,107.7 H 991.8"
       style="fill:none;stroke:#000000;stroke-width:20.2827;stroke-linecap:round;stroke-linejoin:round;stroke-miterlimit:10"
       id="path19" />
  </g>
</svg>
